svg/glass-filled.svg

<svg xmlns="http://www.w3.org/2000/svg" viewBox="0 0 32 64" enable-background="new 0 0 32 64"><style type="text/css">.st0{fill:#333333;}</style><title>glass-filled</title><desc>Created with Sketch.</desc><path class="st0" d="M16 27c5 0 9-4 9-9v-9h-18v9c0 5 4 9 9 9zM30 0h-28c-1.1 0-2 .9-2 2v16c0 8.2 6.1 14.9 14 15.9v26.1h-5c-1.1 0-2 .9-2 2v2h18v-2c0-1.1-.9-2-2-2h-5v-26.1c7.9-1 14-7.7 14-15.9v-16c0-1.1-.9-2-2-2zm-2 18c0 6.6-5.4 12-12 12s-12-5.4-12-12v-14h24v14z"/></svg>

<svg xmlns="http://www.w3.org/2000/svg" viewBox="0 0 32 64"><path d="M16 27c5 0 9-4 9-9V9H7v9c0 5 4 9 9 9zM30 0H2C.9 0 0 .9 0 2v16c0 8.2 6.1 14.9 14 15.9V60H9c-1.1 0-2 .9-2 2v2h18v-2c0-1.1-.9-2-2-2h-5V33.9c7.9-1 14-7.7 14-15.9V2c0-1.1-.9-2-2-2zm-2 18c0 6.6-5.4 12-12 12S4 24.6 4 18V4h24v14z" fill="#333"/></svg>
